X:5
T:De ton peuple rassembl (Kyrie)
M:2/4
L:1/8
%%freegchord 1
K:F
z2"Soliste"A,A,|DD EF|GA GF|E2ED|F2DC|D3"Assemble"D|
w:De ton|peu-ple ras-sem-|bl par ta pa-|ro-le, Sei-|gneur, prends pi-|ti. Sei-|
F2DC|D2"Soliste"DD|GG AB|AG FG|A3A|
w:gneur, prends pi-|ti. De ton|peu-ple sanc-ti-|fi par ton Es-|prit; |
c2AG|A3"Assemble"A|c2AG|A2"Soliste"AA|dd AG|
w:Christ, prends pi-|ti. |Christ, prends pi-|ti. De ton|peu-ple ra-che-|
F2GA|E3D|F2DC|D3"Assemble"D|F2DC|D4||
w:t par ton|sang, Sei-|gneur, prends pi-|ti. Sei-|gneur, prends pi-|ti.|
